src/assets/filled/CallRemove.svg

<svg width="24" height="24" viewBox="0 0 24 24"  xmlns="http://www.w3.org/2000/svg">
<path d="M19.0599 5.99992L20.2999 4.75992C20.5899 4.46992 20.5899 3.98992 20.2999 3.69992C20.0099 3.40992 19.5299 3.40992 19.2399 3.69992L17.9999 4.93992L16.7599 3.69992C16.4699 3.40992 15.9899 3.40992 15.6999 3.69992C15.4099 3.98992 15.4099 4.46992 15.6999 4.75992L16.9399 5.99992L15.6999 7.23992C15.4099 7.52992 15.4099 8.00992 15.6999 8.29992C15.8499 8.44992 16.0399 8.51992 16.2299 8.51992C16.4199 8.51992 16.6099 8.44992 16.7599 8.29992L17.9999 7.05992L19.2399 8.29992C19.3899 8.44992 19.5799 8.51992 19.7699 8.51992C19.9599 8.51992 20.1499 8.44992 20.2999 8.29992C20.5899 8.00992 20.5899 7.52992 20.2999 7.23992L19.0599 5.99992Z" />
<path d="M11.05 14.95L9.2 16.8C8.81 17.19 8.19 17.19 7.79 16.81C7.68 16.7 7.57 16.6 7.46 16.49C6.43 15.45 5.5 14.36 4.67 13.22C3.85 12.08 3.19 10.94 2.71 9.81C2.24 8.67 2 7.58 2 6.54C2 5.86 2.12 5.21 2.36 4.61C2.6 4 2.98 3.44 3.51 2.94C4.15 2.31 4.85 2 5.59 2C5.87 2 6.15 2.06 6.4 2.18C6.66 2.3 6.89 2.48 7.07 2.74L9.39 6.01C9.57 6.26 9.7 6.49 9.79 6.71C9.88 6.92 9.93 7.13 9.93 7.32C9.93 7.56 9.86 7.8 9.72 8.03C9.59 8.26 9.4 8.5 9.16 8.74L8.4 9.53C8.29 9.64 8.24 9.77 8.24 9.93C8.24 10.01 8.25 10.08 8.27 10.16C8.3 10.24 8.33 10.3 8.35 10.36C8.53 10.69 8.84 11.12 9.28 11.64C9.73 12.16 10.21 12.69 10.73 13.22C10.83 13.32 10.94 13.42 11.04 13.52C11.44 13.91 11.45 14.55 11.05 14.95Z" />
<path d="M21.9701 18.33C21.9701 18.61 21.9201 18.9 21.8201 19.18C21.7901 19.26 21.7601 19.34 21.7201 19.42C21.5501 19.78 21.3301 20.12 21.0401 20.44C20.5501 20.98 20.0101 21.37 19.4001 21.62C19.3901 21.62 19.3801 21.63 19.3701 21.63C18.7801 21.87 18.1401 22 17.4501 22C16.4301 22 15.3401 21.76 14.1901 21.27C13.0401 20.78 11.8901 20.12 10.7501 19.29C10.3601 19 9.9701 18.71 9.6001 18.4L12.8701 15.13C13.1501 15.34 13.4001 15.5 13.6101 15.61C13.6601 15.63 13.7201 15.66 13.7901 15.69C13.8701 15.72 13.9501 15.73 14.0401 15.73C14.2101 15.73 14.3401 15.67 14.4501 15.56L15.2101 14.81C15.4601 14.56 15.7001 14.37 15.9301 14.25C16.1601 14.11 16.3901 14.04 16.6401 14.04C16.8301 14.04 17.0301 14.08 17.2501 14.17C17.4701 14.26 17.7001 14.39 17.9501 14.56L21.2601 16.91C21.5201 17.09 21.7001 17.3 21.8101 17.55C21.9101 17.8 21.9701 18.05 21.9701 18.33Z" />
</svg>

<?xml version="1.0" encoding="UTF-8"?>
<svg width="24" height="24" viewBox="0 0 24 24" xmlns="http://www.w3.org/2000/svg">
 <path d="m19.06 5.9999 1.24-1.24c0.29-0.29 0.29-0.77 0-1.06s-0.77-0.29-1.06 0l-1.24 1.24-1.24-1.24c-0.29-0.29-0.77-0.29-1.06 0s-0.29 0.77 0 1.06l1.24 1.24-1.24 1.24c-0.29 0.29-0.29 0.77 0 1.06 0.15 0.15 0.34 0.22 0.53 0.22s0.38-0.07 0.53-0.22l1.24-1.24 1.24 1.24c0.15 0.15 0.34 0.22 0.53 0.22s0.38-0.07 0.53-0.22c0.29-0.29 0.29-0.77 0-1.06l-1.24-1.24z"/>
 <path d="m11.05 14.95-1.85 1.85c-0.39 0.39-1.01 0.39-1.41 0.01-0.11-0.11-0.22-0.21-0.33-0.32-1.03-1.04-1.96-2.13-2.79-3.27-0.82-1.14-1.48-2.28-1.96-3.41-0.47-1.14-0.71-2.23-0.71-3.27 0-0.68 0.12-1.33 0.36-1.93 0.24-0.61 0.62-1.17 1.15-1.67 0.64-0.63 1.34-0.94 2.08-0.94 0.28 0 0.56 0.06 0.81 0.18 0.26 0.12 0.49 0.3 0.67 0.56l2.32 3.27c0.18 0.25 0.31 0.48 0.4 0.7 0.09 0.21 0.14 0.42 0.14 0.61 0 0.24-0.07 0.48-0.21 0.71-0.13 0.23-0.32 0.47-0.56 0.71l-0.76 0.79c-0.11 0.11-0.16 0.24-0.16 0.4 0 0.08 0.01 0.15 0.03 0.23 0.03 0.08 0.06 0.14 0.08 0.2 0.18 0.33 0.49 0.76 0.93 1.28 0.45 0.52 0.93 1.05 1.45 1.58 0.1 0.1 0.21 0.2 0.31 0.3 0.4 0.39 0.41 1.03 0.01 1.43z"/>
 <path d="m21.97 18.33c0 0.28-0.05 0.57-0.15 0.85-0.03 0.08-0.06 0.16-0.1 0.24-0.17 0.36-0.39 0.7-0.68 1.02-0.49 0.54-1.03 0.93-1.64 1.18-0.01 0-0.02 0.01-0.03 0.01-0.59 0.24-1.23 0.37-1.92 0.37-1.02 0-2.11-0.24-3.26-0.73s-2.3-1.15-3.44-1.98c-0.39-0.29-0.78-0.58-1.15-0.89l3.27-3.27c0.28 0.21 0.53 0.37 0.74 0.48 0.05 0.02 0.11 0.05 0.18 0.08 0.08 0.03 0.16 0.04 0.25 0.04 0.17 0 0.3-0.06 0.41-0.17l0.76-0.75c0.25-0.25 0.49-0.44 0.72-0.56 0.23-0.14 0.46-0.21 0.71-0.21 0.19 0 0.39 0.04 0.61 0.13s0.45 0.22 0.7 0.39l3.31 2.35c0.26 0.18 0.44 0.39 0.55 0.64 0.1 0.25 0.16 0.5 0.16 0.78z"/>
</svg>
